flaticon/emoticons/sick.svg

<svg xmlns="http://www.w3.org/2000/svg" width="32" height="32" viewBox="0 0 24 24">
    <path d="M14.816406 17.46875C15.085938 17.46875 15.304688 17.25 15.304688 16.976562 15.304688 16.707031 15.085938 16.488281 14.816406 16.488281 14.296875 16.488281 13.839844 16.761719 13.578125 17.171875 13.28125 17.046875 12.910156 16.976562 12.488281 16.976562 12.066406 16.976562 11.699219 17.046875 11.402344 17.171875 11.140625 16.761719 10.683594 16.488281 10.164062 16.488281 9.890625 16.488281 9.671875 16.707031 9.671875 16.976562 9.671875 17.25 9.890625 17.46875 10.164062 17.46875 10.433594 17.46875 10.652344 17.6875 10.652344 17.957031 10.652344 18.226562 10.433594 18.445312 10.164062 18.445312 9.890625 18.445312 9.671875 18.664062 9.671875 18.9375 9.671875 19.207031 9.890625 19.425781 10.164062 19.425781 10.886719 19.425781 11.484375 18.902344 11.605469 18.214844 11.613281 18.195312 11.625 18.175781 11.625 18.15625 11.714844 18.089844 12.003906 17.957031 12.488281 17.957031 12.976562 17.957031 13.265625 18.089844 13.351562 18.15625 13.355469 18.175781 13.367188 18.195312 13.371094 18.214844 13.496094 18.902344 14.09375 19.425781 14.816406 19.425781 15.085938 19.425781 15.304688 19.207031 15.304688 18.9375 15.304688 18.664062 15.085938 18.445312 14.816406 18.445312 14.546875 18.445312 14.328125 18.226562 14.328125 17.957031 14.328125 17.6875 14.546875 17.46875 14.816406 17.46875zM9.796875 13.058594C9.796875 13.601562 9.355469 14.039062 8.816406 14.039062 8.273438 14.039062 7.835938 13.601562 7.835938 13.058594 7.835938 12.519531 8.273438 12.078125 8.816406 12.078125 9.355469 12.078125 9.796875 12.519531 9.796875 13.058594zM16.652344 13.058594C16.652344 13.601562 16.214844 14.039062 15.671875 14.039062 15.132812 14.039062 14.695312 13.601562 14.695312 13.058594 14.695312 12.519531 15.132812 12.078125 15.671875 12.078125 16.214844 12.078125 16.652344 12.519531 16.652344 13.058594zM16.652344 13.058594"/>
    <path d="M 22.476562 9.785156 C 22.449219 9.652344 22.410156 9.523438 22.378906 9.390625 C 22.347656 9.257812 22.320312 9.125 22.28125 8.996094 C 22.226562 8.792969 22.160156 8.59375 22.089844 8.398438 C 22.058594 8.304688 22.03125 8.210938 21.996094 8.117188 C 21.910156 7.886719 21.8125 7.660156 21.710938 7.4375 C 21.6875 7.382812 21.664062 7.324219 21.640625 7.273438 C 21.527344 7.035156 21.40625 6.808594 21.277344 6.585938 C 21.25 6.539062 21.230469 6.492188 21.203125 6.449219 C 21.089844 6.257812 20.96875 6.074219 20.84375 5.894531 C 20.789062 5.8125 20.738281 5.730469 20.683594 5.648438 C 20.617188 5.558594 20.542969 5.46875 20.472656 5.378906 C 18.492188 2.785156 15.378906 1.144531 11.921875 1.144531 C 7.859375 1.144531 4.269531 3.484375 2.492188 7.007812 C 2.460938 7.066406 2.429688 7.125 2.398438 7.1875 C 2.320312 7.351562 2.246094 7.523438 2.175781 7.695312 C 2.121094 7.820312 2.066406 7.945312 2.019531 8.074219 C 1.964844 8.214844 1.917969 8.363281 1.871094 8.507812 C 1.820312 8.664062 1.765625 8.820312 1.722656 8.976562 C 1.683594 9.121094 1.648438 9.269531 1.613281 9.417969 C 1.585938 9.539062 1.550781 9.660156 1.523438 9.785156 C 0.640625 10.261719 0 11.304688 0 12.324219 C 0 13.378906 0.621094 14.328125 1.570312 14.761719 C 2.792969 19.539062 7.046875 22.855469 12 22.855469 C 16.953125 22.855469 21.207031 19.539062 22.429688 14.761719 C 23.378906 14.328125 24 13.378906 24 12.324219 C 24 11.304688 23.359375 10.261719 22.476562 9.785156 Z M 2.589844 9.542969 C 2.621094 9.410156 2.65625 9.277344 2.695312 9.148438 C 2.738281 9 2.785156 8.851562 2.835938 8.707031 C 2.875 8.59375 2.914062 8.480469 2.957031 8.371094 C 3.023438 8.199219 3.09375 8.03125 3.167969 7.867188 C 3.199219 7.796875 3.230469 7.726562 3.265625 7.65625 C 4.835938 4.398438 8.132812 2.285156 12 2.285156 C 15 2.285156 17.660156 3.554688 19.4375 5.644531 C 19.4375 5.648438 19.441406 5.652344 19.445312 5.65625 C 19.597656 5.835938 19.742188 6.027344 19.878906 6.21875 C 19.941406 6.304688 20 6.394531 20.0625 6.484375 C 20.144531 6.605469 20.222656 6.726562 20.296875 6.851562 C 20.378906 6.984375 20.457031 7.121094 20.53125 7.257812 C 20.582031 7.359375 20.636719 7.457031 20.6875 7.558594 C 20.761719 7.707031 20.832031 7.863281 20.898438 8.019531 C 20.941406 8.121094 20.984375 8.222656 21.027344 8.328125 C 21.085938 8.476562 21.140625 8.632812 21.191406 8.789062 C 21.230469 8.90625 21.269531 9.027344 21.308594 9.152344 C 21.347656 9.292969 21.386719 9.4375 21.421875 9.585938 C 21.441406 9.660156 21.457031 9.734375 21.472656 9.8125 C 19.46875 10.457031 17.980469 9.019531 17.0625 7.652344 C 16.894531 7.40625 16.628906 7.238281 16.335938 7.191406 C 16.035156 7.148438 15.726562 7.230469 15.488281 7.421875 C 10.929688 11.0625 4.335938 10.09375 2.546875 9.746094 C 2.558594 9.675781 2.570312 9.609375 2.589844 9.542969 Z M 21.855469 13.9375 C 21.695312 13.992188 21.574219 14.125 21.535156 14.292969 C 20.503906 18.757812 16.582031 21.875 12 21.875 C 7.417969 21.875 3.496094 18.757812 2.464844 14.292969 C 2.425781 14.125 2.304688 13.992188 2.144531 13.9375 C 1.449219 13.703125 0.980469 13.050781 0.980469 12.324219 C 0.980469 11.660156 1.4375 10.9375 2.015625 10.636719 C 2.582031 10.765625 4.355469 11.128906 6.625 11.128906 C 9.492188 11.128906 13.140625 10.546875 16.097656 8.1875 C 16.132812 8.160156 16.171875 8.160156 16.1875 8.160156 C 16.222656 8.167969 16.242188 8.191406 16.246094 8.199219 C 17.863281 10.609375 19.90625 11.46875 22.015625 10.65625 C 22.582031 10.964844 23.019531 11.671875 23.019531 12.324219 C 23.019531 13.050781 22.550781 13.703125 21.855469 13.9375 Z M 21.855469 13.9375"/>
</svg>

<svg xmlns="http://www.w3.org/2000/svg" width="32" height="32" viewBox="0 0 24 24">
    <path d="M14.816 17.469a.49.49 0 0 0 0-.98c-.52 0-.976.273-1.238.683a2.83 2.83 0 0 0-1.09-.195c-.422 0-.789.07-1.086.195a1.47 1.47 0 0 0-1.238-.684.49.49 0 1 0 0 .98.488.488 0 0 1 0 .977.49.49 0 1 0 0 .98c.723 0 1.32-.523 1.441-1.21.008-.02.02-.04.02-.059.09-.066.379-.199.863-.199.489 0 .778.133.864.2.003.019.015.038.02.058.124.687.722 1.21 1.444 1.21a.49.49 0 1 0 0-.98.488.488 0 0 1 0-.976zm0 0M9.797 13.059a.981.981 0 1 1-1.962-.002.981.981 0 0 1 1.962.002zm0 0M16.652 13.059a.979.979 0 1 1-1.957 0c0-.54.438-.98.977-.98.543 0 .98.44.98.98zm0 0"/>
    <path d="M22.477 9.785c-.028-.133-.067-.262-.098-.394-.031-.133-.059-.266-.098-.395a7.608 7.608 0 0 0-.191-.598c-.031-.093-.059-.187-.094-.28-.086-.231-.183-.458-.285-.68-.023-.055-.047-.114-.07-.165a9.548 9.548 0 0 0-.364-.687c-.027-.047-.047-.094-.074-.137a8.987 8.987 0 0 0-.36-.554c-.054-.082-.105-.165-.16-.247-.066-.09-.14-.18-.21-.27a10.742 10.742 0 0 0-8.551-4.233c-4.063 0-7.652 2.34-9.43 5.863a7.577 7.577 0 0 0-.094.18 9.959 9.959 0 0 0-.222.507c-.055.125-.11.25-.156.38-.055.14-.102.288-.149.433-.05.156-.105.312-.148.469-.04.144-.075.293-.11.441-.027.121-.062.242-.09.367C.641 10.262 0 11.305 0 12.325c0 1.054.621 2.003 1.57 2.437A10.721 10.721 0 0 0 12 22.855c4.953 0 9.207-3.316 10.43-8.093A2.683 2.683 0 0 0 24 12.324c0-1.02-.64-2.062-1.523-2.539zM2.59 9.543a8.29 8.29 0 0 1 .246-.836c.039-.113.078-.227.121-.336.066-.172.137-.34.211-.504.031-.07.062-.14.098-.21C4.836 4.397 8.133 2.284 12 2.284c3 0 5.66 1.27 7.438 3.36a8.613 8.613 0 0 1 .441.574c.062.086.121.176.183.265.083.121.16.243.235.368.082.132.16.27.234.406.051.101.106.199.157.3.074.149.144.305.21.462l.13.308c.058.149.113.305.163.461.04.117.079.238.118.363a11.634 11.634 0 0 1 .164.66c-2.004.645-3.493-.792-4.41-2.16a1.093 1.093 0 0 0-.727-.46c-.3-.044-.61.038-.848.23-4.558 3.64-11.152 2.672-12.941 2.324.012-.07.023-.137.043-.203zm19.265 4.395a.491.491 0 0 0-.32.355A9.741 9.741 0 0 1 12 21.875a9.741 9.741 0 0 1-9.535-7.582.491.491 0 0 0-.32-.355A1.708 1.708 0 0 1 .98 12.323c0-.664.458-1.386 1.036-1.687.566.129 2.34.492 4.609.492 2.867 0 6.516-.582 9.473-2.941.035-.028.074-.028.09-.028a.092.092 0 0 1 .058.04c1.617 2.41 3.66 3.269 5.77 2.456.566.309 1.004 1.016 1.004 1.668 0 .727-.47 1.38-1.165 1.614zm0 0"/>
</svg>
